X:1
T:Joy Dispels Our Sorrow
T:Joseph W. Lerman
T:Joy Dispels Our Sorrow
T:Public Domain
T:Public Domain
T:Public Domain
T:Public Domain
C:Joseph W. Lerman
Z:Public Domain
%%score ( 1 2 ) 3
L:1/8
M:4/4
K:Ab
V:1 treble 
V:2 treble 
V:3 bass 
V:1
 EFEA c2 A2 | dcB=A B4 | cBGF E2 d2 | (z2 .A2 G2 F2) | EFEA c2 A2 | dcB=A B4 | cBcB GEDB | %7
w: 1.~Morn- ing light was dawn- ing|o’er the dis- tant hills,|Ban- ished was the mid- night||Si- lent- ly the an- gels|clad in bright ar- ray|Came to guard the dear Re- deem- er’s|
w: 2.~Lov- ing ones who sought Him|at the break of day,|Found the an- gels wait- ing||Joy dis- pelled their sor- row—|fear gave way to faith—|Hope suc- ceed- ed all their deep de-|
w: 3.~Eas- ter tells its glad- ness|all the year a- round—|Hap- py birds their trib- ute||Fra- grant flow- ers bloom- ing|af- ter win- ter days|Speak to us the joys of com- ing|
 (z2 (3=dfe a2) z2 | G^FGc B2 A2 | AGA=A B4 | c=Bc=d ec_BG | F6 z2 | G^FGc B2 A2 | AGA=A B4 | %14
w: |Sol- diers were af- fright- ed|and in ter- ror fled,|While the an- gels roll the stone a-|way.|Then with joy pro- claim- ing,|“Christ the Lord is ris’n”|
w: |For the an- gels told them,|“Je- sus is not here,”|But had sure- ly ris- en as He|said.|Then with ea- ger foot- steps|joy- ful- ly they tell|
w: |Earth- ly plea- sures van- ish,|flow- ers soon shall fade,|But the joy of Eas- ter shall en-|dure.|Hope of re- sur- rect- ion|ne- ver shall grow dim|
 cFFG BAFG | (z2 .=D.E FGAB) ||"^Refrain" cGBA E2 e2 | d=AcB F4 | Ged=A B2 =B2 | %19
w: “See the place where once the Sav- ior|||||
w: How that Christ had ris- en from the||Joy dis- pels our sor- row—|plea- sures ban- ish pain—|Earth a- wakes from win- ter’s|
w: While the Word of God a- bid- eth|||||
 (c-[c-c']gb a=dfe) | cGBA E2 e2 | d=AcB F4 | GA=AB f2 e2 | (z [Ec][=D=B][Ec] [CA]6) |] %24
w: |||||
w: gloom; * * * * * * *|ter an- thems ring- ing tell|the joy- ful news “Christ|is rise- n from the tomb.”||
w: |||||
V:2
 x8 | x8 | x8 | c4 x4 | x8 | x8 | x8 | A4 x4 | x8 | x8 | x8 | x8 | x8 | x8 | x8 | E4 x4 || x8 | %17
w: |||gloom;||||tomb.||||||||lay.”||
w: |||there;||||spair.||||||||dead.||
w: |||bring;||||spring.||||||||sure.||
 x8 | x8 | x2 c2 x4 | x8 | x8 | x8 | A6 x4 |] %24
w: |||||||
w: ||Eas-|||||
w: |||||||
V:3
 A,,2 [E,A,C]2 A,,2 [E,A,C]2 | D,2 [F,B,D]2 ([F,B,D]2 [F,B,D]2) | E,2 [G,B,D]2 E,2 [G,B,D]2 | %3
 (A,,2 [E,A,C]2 [E,A,C]2 [E,A,C]2) | C,2 [E,A,C]2 A,,2 [E,A,C]2 | %5
 D,2 [F,B,D]2 ([F,B,D]2 [F,B,D]2) | E,2 [G,B,D]2 E,2 [G,B,D]2 | (A,,2 [E,A,C]2 [E,A,C]2) z2 | %8
 E,2 [G,B,D]2 F,2 [A,B,=D]2 | B,,2 [A,B,=D]2 (E,2 [G,B,D]2) | A,,2 [E,A,C]2 G,,2 [E,G,B,]2 | %11
 ([B,,B,]2 [A,,A,]2 [F,,F,]2 [B,,B,]2) | E,2 [G,B,E]2 F,2 [A,B,=D]2 | %13
 B,,2 [A,B,=D]2 G,,2 [G,B,D]2 | A,,2 [F,A,C]2 B,,2 [A,B,=D]2 | [E,G,B,]6 z2 || %16
 A,,2 [E,A,C]2 C,2 [E,A,C]2 | D,2 [F,B,D]2 [F,B,D]2 [F,B,D]2 | E,2 [G,B,D]2 G,,2 [E,G,B,D]2 | %19
 A,,2 [E,A,C]2 [E,A,C]2 [E,A,C]2 | A,,2 [E,A,C]2 C,2 [E,A,C]2 | D,2 [F,B,D]2 [F,B,D]2 [F,B,D]2 | %22
 E,2 [G,B,D]2 E,2 [G,B,D]2 | [A,C] z E,2 [A,,A,]6 |] %24

